X:1
T:Shining for Jesus
T:John Robson Sweney
T:Shining for Jesus
T:Public Domain
T:Public Domain
C:John Robson Sweney
Z:Public Domain
%%score ( 1 2 ) ( 3 4 )
L:1/8
M:4/4
K:Ab
V:1 treble 
V:2 treble 
V:3 bass 
V:4 bass 
V:1
 [Ec]2 [Ec]>[Ec] [Fd]2 [Ec]2 | [=Dc][DB][DF][Dc] [_DB]4 | [EB]2 [EB]>[EA] [EG][DF][CE][B,D] | %3
w: 1.~Shin- ing for Je- sus|ev- ery- where I go,|Shin- ing for Je- sus in this|
w: 2.~Shin- ing for Je- sus,|for He died for me;|Shin- ing for Je- sus, for He|
w: 3.~Shin- ing for Je- sus|when the way is bright;|Shin- ing for Je- sus in the|
w: 4.~Shin- ing for Je- sus,|with a help- ing hand,|Shin- ing for Je- sus, help- ing|
 [A,C]2 [DF]2 [CE]4 | [Ec]2 [Ec]>[Ec] [Ec]2 [_Ge]2 | [Ge][Fd][Fd][DF] [DB]4 | %6
w: world of woe;|Shin- ing for Je- sus,|more like Him I grow;|
w: set me free;|Shin- ing for Je- sus,|let the whole world see,|
w: dark- est night;|Shin- ing for Je- sus,|mak- ing burd- ens light;|
w: o- thers stand;|Shin- ing while march- ing|to the heav’n- ly land,|
 [EG][EG] [Ee]>[Ed] [Ec]2 [EA]2 | [DB]4 [CA]4 ||"^Refrain" [Ec][CE] [CE]>[CA] [Ec]4 | %9
w: Shin- ing all the time for|Je- sus.||
w: Shin- ing all the time for|Je- sus.|Shin- ing all the time,|
w: Shin- ing all the time for|Je- sus.||
w: Shin- ing all the time for|Je- sus.||
 [Fd][DF] [DF]>[FA] [Fd]4 | [Ac]2 [Ac]>[Ad] [Ae]2 [Ec]2 | [FA][FA] [FG]>[FA] [GB]4 | %12
w: |||
w: shin- ing all the time;|Shin- ing for Je- sus,|beams of love di- vine;|
w: |||
w: |||
 [CE][CE] [CA]>[DB] (E2 F2) | [Ac][Ac] [AB]>[Ac] [Bd]4 | [Ac][Ac] [Ae]>[Ad] [Ac]2 [FA]2 | %15
w: |||
w: Glor- i- fy- ing Him *|ery day and hour; Shin-|ing all the time for Je-|
w: |||
w: |||
 [DB]4 [CA]4 |] %16
w: |
w: sus. *|
w: |
w: |
V:2
 x8 | x8 | x8 | x8 | x8 | x8 | x8 | x8 || x8 | x8 | x8 | x8 | x4 c4 | x8 | x8 | x8 |] %16
w: ||||||||||||||||
w: ||||||||||||ev-||||
V:3
 [A,,A,]2 [A,,A,]>[A,,A,] [A,,A,]2 [A,,A,]2 | [B,,F,][B,,F,][B,,F,][B,,F,] [E,G,]4 | %2
 [E,D]2 [E,D]>[E,C] [E,B,][E,A,][E,A,][E,G,] | [A,,A,]2 [A,,A,]2 [A,,A,]4 | %4
 [A,,A,]2 [A,,A,]>[A,,A,] [A,,A,]2 [C,A,]2 | [D,A,][D,A,][D,A,][D,A,] [B,,B,]4 | %6
 [E,B,][D,B,] [C,A,]>[B,,A,] [A,,A,]2 [C,A,]2 | [E,G,]4 [A,,A,]4 || %8
 [A,,A,][A,,A,] [A,,A,]>[A,,A,] [A,,A,]4 | [D,A,][D,A,] [D,A,]>[D,D] [D,D]4 | %10
 [A,E]2 [A,E]>[B,E] [CE]2 A,2 | [F,C][F,C] [F,B,]>[F,C] [E,E]4 | %12
 [A,,A,][A,,A,] [A,,A,]>[A,,A,] A,2 [_G,E]2 | [_G,E][G,E] [G,D]>[G,E] (F,2 =G,2) | %14
 [A,E][A,E] [A,,C]>[B,,B,] [C,A,]2 [F,C]2 | [E,G,]4 [A,,A,]4 |] %16
V:4
 x8 | x8 | x8 | x8 | x8 | x8 | x8 | x8 || x8 | x8 | x8 | x8 | x8 | x4 F4 | x8 | x8 |] %16

